X: 39068
T: Swedish Rhapsody, The
R: polka
M: 2/4
K: Gmajor
g2 g4 g2|f6 (3FAc|e2 e4 e2|d6 D2|D2 F>A e2 d2|
[1 F4 F2 E2|D2 (3FGA e2 d2|B6:|
[2 F6 e>f|g2 (3fgf e2 f2|g6||

